img/Phone.svg

<svg width="25" height="25" viewBox="0 0 25 25" fill="none" xmlns="http://www.w3.org/2000/svg">
<path d="M5.66667 14.3333L3.66667 11.3333L2.05785 8.38384C1.79873 7.90879 1.61733 7.39532 1.52053 6.86292L1.42069 6.31379C1.16016 4.88087 1.67977 3.41734 2.78556 2.46952C4.4113 1.07603 6.83581 1.16914 8.34988 2.68322L9.05681 3.39014C10.1631 4.4964 10.2606 6.25757 9.28328 7.47923C8.68468 8.22748 8.46974 9.21231 8.70215 10.1419L8.80691 10.561C8.93435 11.0707 9.16241 11.5499 9.47769 11.9702L10.1714 12.8951C10.721 13.628 11.372 14.279 12.1049 14.8286L13.0298 15.5223C13.4501 15.8376 13.9293 16.0657 14.439 16.1931L14.8581 16.2979C15.7877 16.5303 16.7725 16.3153 17.5208 15.7167C18.7424 14.7394 20.5036 14.8369 21.6099 15.9432L22.3935 16.7268C23.8643 18.1976 23.9547 20.5528 22.6011 22.1321C21.6198 23.2769 20.076 23.769 18.6133 23.4033L17.6033 23.1508C17.2023 23.0506 16.8135 22.9067 16.4438 22.7219L13.6667 21.3333L11.6808 20.0922C11.2277 19.809 10.7979 19.4899 10.3958 19.138L8.33333 17.3333L5.66667 14.3333Z" stroke="white"/>
</svg>

<svg width="25" height="25" fill="none" xmlns="http://www.w3.org/2000/svg"><path d="m5.667 14.333-2-3-1.61-2.95a5.07 5.07 0 0 1-.536-1.52l-.1-.55a4.098 4.098 0 0 1 6.929-3.63l.707.707a3.07 3.07 0 0 1 .226 4.09 3.07 3.07 0 0 0-.58 2.662l.104.419c.127.51.355.989.67 1.41l.694.924c.55.733 1.201 1.384 1.934 1.934l.925.693c.42.316.9.544 1.409.671l.42.105a3.07 3.07 0 0 0 2.662-.581 3.07 3.07 0 0 1 4.089.226l.784.784a3.98 3.98 0 0 1-3.78 6.676l-1.01-.252c-.402-.1-.79-.244-1.16-.43l-2.777-1.388-1.986-1.24a9.996 9.996 0 0 1-1.285-.955l-2.063-1.805-2.666-3Z" stroke="#fff"/></svg>
